X: 29
T:Moel yr Wyddfa
M:2/4
L:1/8
Q:130
C:Trad
S:Blodau'r Grug Collection Vol. 2
A:Wales
Z:brian_martin12345@yahoo.com
K:G
D|G>B dG|F>A dF|G>B dG|F>A dc|Bc dB|cg ec|B2A2|G3:||!
d|gd gg|ad aa|gd gg|ad aa|gG Bd|gf ed|ed cB|c>d ec|!
Bc dB|A>B cA|G>B dG|FA dc|Bc dB|cg ec|B2A2|G3:||

